img/icons/quote.svg

<svg width="53" height="48" viewBox="0 0 53 48" fill="none" xmlns="http://www.w3.org/2000/svg">
<path d="M13.2982 27.759C15.4824 28.4016 17.1527 29.6225 18.3091 31.4217C19.5939 33.0924 20.2364 35.1486 20.2364 37.5904C20.2364 40.6747 19.2727 43.1807 17.3455 45.1084C15.4182 47.0361 13.0412 48 10.2145 48C7.13091 48 4.62545 47.0361 2.69818 45.1084C0.899394 43.0522 0 40.5462 0 37.5904C0 36.0482 0.128486 34.5703 0.385455 33.1566C0.77091 31.6145 1.47758 29.4297 2.50545 26.6024L10.6 0H19.8509L13.2982 27.759ZM46.0618 27.759C48.2461 28.4016 49.9164 29.6225 51.0727 31.4217C52.3576 33.0924 53 35.1486 53 37.5904C53 40.6747 52.0364 43.1807 50.1091 45.1084C48.1818 47.0361 45.8048 48 42.9782 48C39.8945 48 37.3891 47.0361 35.4618 45.1084C33.663 43.0522 32.7636 40.5462 32.7636 37.5904C32.7636 36.0482 32.8921 34.5703 33.1491 33.1566C33.5345 31.6145 34.2412 29.4297 35.2691 26.6024L43.3636 0H52.6145L46.0618 27.759Z" fill="white"/>
</svg>

<svg width="53" height="48" fill="none" xmlns="http://www.w3.org/2000/svg"><path d="M13.298 27.759c2.184.643 3.855 1.863 5.011 3.663 1.285 1.67 1.927 3.727 1.927 6.168 0 3.085-.963 5.59-2.89 7.518C15.418 47.036 13.04 48 10.214 48c-3.083 0-5.589-.964-7.516-2.892C.9 43.052 0 40.546 0 37.59c0-1.542.128-3.02.385-4.433.386-1.542 1.093-3.727 2.12-6.555L10.6 0h9.25l-6.552 27.759zm32.764 0c2.184.643 3.854 1.863 5.01 3.663C52.359 33.092 53 35.149 53 37.59c0 3.085-.964 5.59-2.89 7.518C48.181 47.036 45.804 48 42.977 48c-3.084 0-5.589-.964-7.516-2.892-1.799-2.056-2.698-4.562-2.698-7.518 0-1.542.128-3.02.385-4.433.386-1.542 1.092-3.727 2.12-6.555L43.364 0h9.25l-6.552 27.759z" fill="#fff"/></svg>
